X: 24655
T: MacGregor Of Rora
R: waltz
M: 3/4
K: Adorian
|:A>B e2 e2|e>d B2 A2|A>B e2 g2|f<a d2 G2|
dB d2 e>d|BA AG g>f|e>d B<d G2|A2 B2 A2:|
|:ge a2 a2|gf/e/ d2 d2|ge a2 a2|gf/e/ d2 G2|
dB d2 e>d|BA AG g>f|e>d B<d G2|A2 B2 A2:|

